X:1
T:Title
%%score ( 1 2 ) 3
L:1/8
Q:1/4=98
M:4/4
K:Bb
V:1 treble nm="Grand Piano, Soprano"
V:2 treble 
V:3 bass nm="Choir Pad, Will You Be Ready to Go?"
V:1
 [DF]2 [DF]>[DF] [EG] [DF]2 [DB] | [Fd]2 [Fd]>[Fd] [Fc] [FB]3 | [EG]2 [EG]>[GB] [EG] [DF]2 [FB] | %3
w: By~Alfred~Elisha~Helton * * * * *|||
 [Fc]2 [=Ec][Ed] [Fc]4 | [Fd]2 [Fd]>[Fd] [Ge] [Fd]2 [DB] | [Fd]2 [Fd]>[Fd] [Fc] [FB]3 | %6
w: |||
 [EG]2 [EG]>[GB] [EG] [DF]2 [FB] | [Fd] [Fd]2 [Ec] [DB]4 | [EG]2 [EG]>[GB] [EG] [EF]2 [FB] | %9
w: |||
 B2- [GB][Gc] [Fd]4 | [Fd]2 [Fd]>[Fd] [Ec] [DB]2 [Fd] | c2- [Fc-][Fc-] [Fc]2 [DF][DF] | %12
w: |||
 [DB]2 [DB]2 [DB][Ec][Fd][FB] | E2 E[EB] [Ge]4 | [Fd]2 [DB]>[DB] [EG] [DF]2 [FB] | %15
w: |||
 [Fd] [Fd]2 [Ec] [DB]4- | [DB]4 z4 |] %17
w: ||
V:2
 x8 | x8 | x8 | x8 | x8 | x8 | x8 | x8 | x8 | D2 z2 z4 | x8 | F2 z2 z4 | x8 | G4 z4 | x8 | x8 | %16
 x8 |] %17
V:3
 [B,,B,]2 [B,,B,]>[B,,B,] [B,,B,] [B,,B,]2 [B,,F,] | [B,,B,]2 [B,,B,]>[B,,B,] [D,B,] [D,B,]3 | %2
 [E,B,]2 [E,B,]>[E,B,] [B,,B,] [B,,B,]2 [D,B,] | [F,A,]2 [C,G,][C,B,] [F,A,]4 | %4
 [B,,B,]2 [B,,B,]>[B,,B,] [B,,B,] [B,,B,]2 [B,,F,] | [B,,B,]2 [B,,B,]>[B,,B,] [D,B,] [D,B,]3 | %6
 [E,B,]2 [E,B,]>[E,B,] [B,,B,] [B,,B,]2 [D,B,] | [F,B,] [F,B,]2 [F,A,] [B,,B,]4 | %8
 [E,B,]2 [E,B,]>[E,B,] [F,A,] [F,A,]2 [D,B,] | [G,B,]2 [E,B,][E,B,] [B,,B,]4 | %10
 [B,,B,]2 [B,,B,]>[B,,B,] [B,,F,] [B,,F,]2 [B,,B,] | [F,A,]2 [F,A,][F,A,] [F,A,]2 [B,,B,][B,,B,] | %12
 [B,,F,]2 [B,,F,]2 [B,,F,][B,,F,][B,,B,][D,B,] | [E,B,]2 [E,B,][E,G,] [E,B,]4 | %14
 [B,,B,]2 [B,,F,]>[B,,F,] [B,,B,] [B,,B,]2 [D,B,] | [F,B,] [F,B,]2 F, [B,,F,]4- | [B,,F,]4 z4 |] %17

